X: 1
T: Red Roofed Cottage
M: 4/4
L: 1/8
R: reel
K: Dmaj
A~F3 GFEF|DBAB DE F/E/D|E~B3 d~B3|dcBA BFAF|
DE F/E/D ABAF|DEED E~B3|dedA BdAF|1 EDEF D3 B:|2 EDEF D3 E||
F~B3 BAFE|DFFE D3 A|B~e3 edBA|FABc d2 eg|
fded cdBd|A~F3 EDBc|dedA BdAF|1 EDEF D3 E:|2 EDEF D3 B||
